icon-themes/breeze_svg/cmd/sc_changebezier.svg

<svg viewBox="0 0 16 16" xmlns="http://www.w3.org/2000/svg"><path d="m3.5 2c-.8284271 0-1.5.6715729-1.5 1.5 0 .6558381.413588 1.2024102 1 1.40625v6.09375h-1v3h3v-3h-1c0-2.03125 0-4.0625 0-6.09375.4320931-.1501977.7560523-.4741569.90625-.90625h6.09375v1h3v-3h-3v1c-2.03125 0-4.0625 0-6.09375 0-.2038398-.586412-.7504119-1-1.40625-1zm0 1c.2761424 0 .5.2238576.5.5s-.2238576.5-.5.5-.5-.2238576-.5-.5.2238576-.5.5-.5zm8.5 0h1v1h-1zm-9 9h1v1h-1z" fill="#4d4d4d"/><path d="m11.5 9c-1.385 0-2.5 1.115-2.5 2.5 0 .4334.12.8328.3125 1.1875l.75-.75c-.041-.1371-.0625-.2867-.0625-.4375 0-.831.669-1.5 1.5-1.5.15079 0 .30041.0225.4375.0625l.75-.75c-.35465-.1924-.75407-.3125-1.1875-.3125zm2.1875 1.314453-.75.748047c.041.1371.0625.2867.0625.4375 0 .831-.669 1.5-1.5 1.5-.15079 0-.30041-.020547-.4375-.060547l-.75.75c.35464.1924.75407.3125 1.1875.3125 1.385 0 2.5-1.115 2.5-2.5 0-.4334-.12-.8328-.3125-1.1875z" fill="#1d99f3"/></svg>

<svg xmlns="http://www.w3.org/2000/svg" viewBox="0 0 16 16">
 <path 
     style="fill:#4d4d4d" 
     d="M 3.5,2 C 2.6715729,2 2,2.6715729 2,3.5 2,4.1558381 2.413588,4.7024102 3,4.90625 3,6.9375 3,8.96875 3,11 l -1,0 0,3 3,0 0,-3 -1,0 C 4,8.96875 4,6.9375 4,4.90625 4.4320931,4.7560523 4.7560523,4.4320931 4.90625,4 6.9375,4 8.96875,4 11,4 l 0,1 3,0 0,-3 -3,0 0,1 C 8.96875,3 6.9375,3 4.90625,3 4.7024102,2.413588 4.1558381,2 3.5,2 Z m 0,1 C 3.7761424,3 4,3.2238576 4,3.5 4,3.7761424 3.7761424,4 3.5,4 3.2238576,4 3,3.7761424 3,3.5 3,3.2238576 3.2238576,3 3.5,3 Z m 8.5,0 1,0 0,1 -1,0 z m -9,9 1,0 0,1 -1,0 z"
     />
 <path 
     style="fill:#1d99f3" 
     d="M 11.5 9 C 10.115 9 9 10.115 9 11.5 C 9 11.9334 9.12 12.3328 9.3125 12.6875 L 10.0625 11.9375 C 10.0215 11.8004 10 11.6508 10 11.5 C 10 10.669 10.669 10 11.5 10 C 11.65079 10 11.80041 10.0225 11.9375 10.0625 L 12.6875 9.3125 C 12.33285 9.1201 11.93343 9 11.5 9 z M 13.6875 10.314453 L 12.9375 11.0625 C 12.9785 11.1996 13 11.3492 13 11.5 C 13 12.331 12.331 13 11.5 13 C 11.34921 13 11.19959 12.979453 11.0625 12.939453 L 10.3125 13.689453 C 10.66714 13.881853 11.06657 14.001953 11.5 14.001953 C 12.885 14.001953 14 12.886953 14 11.501953 C 14 11.068553 13.88 10.669153 13.6875 10.314453 z "
     />
 </svg>
